img/icones/idiomas-icon.svg

<svg width="30" height="25" viewBox="0 0 30 25" fill="none" xmlns="http://www.w3.org/2000/svg">
<path d="M6.49305 5.31311L5.24765 8.28411H7.73242L6.49305 5.31311Z" fill="url(#paint0_linear_18_550)"/>
<path d="M2.73309 17.6769H10.3178C10.6261 16.651 10.7864 15.5778 10.7864 14.4925V10.057C10.7864 7.89859 12.5475 6.13754 14.7059 6.13754H18.4713C18.5306 5.95959 18.6019 5.78165 18.6788 5.60966C18.8389 5.23615 19.0168 4.86834 19.2124 4.50677C19.2303 4.46532 19.2538 4.42362 19.2836 4.38218C19.3608 4.23402 19.4437 4.0856 19.5385 3.9434C19.6452 3.76545 19.7579 3.5875 19.8825 3.41552C19.9952 3.24353 20.1198 3.07153 20.25 2.90551C20.3746 2.73947 20.5049 2.57344 20.6474 2.41932C20.9142 2.09917 21.2048 1.79068 21.513 1.49432L22.0052 1.02005C22.1772 0.854018 22.2365 0.593177 22.1417 0.367807C22.0528 0.148417 21.8392 0.000248181 21.5962 0.000248181L2.73344 0C1.22151 0 0 1.22749 0 2.7337V14.9431C0 16.4493 1.22158 17.6768 2.73344 17.6768L2.73309 17.6769ZM2.86958 10.8991L3.81244 8.64582L5.94135 3.54616C6.03615 3.32677 6.24959 3.18456 6.49281 3.18456C6.73007 3.18456 6.94351 3.32677 7.03831 3.54616L10.116 10.899C10.2406 11.2015 10.0981 11.5512 9.79582 11.6758C9.71864 11.7054 9.6417 11.7232 9.56452 11.7232C9.33322 11.7232 9.11382 11.5867 9.01902 11.3557L8.2303 9.46998H4.74957L3.96085 11.3557C3.83627 11.6582 3.48658 11.8004 3.18402 11.6758C2.88148 11.551 2.73903 11.2011 2.86957 10.8988L2.86958 10.8991Z" fill="url(#paint1_linear_18_550)"/>
<path d="M20.8074 17.5047C21.8274 16.2537 22.527 14.937 22.9125 14.1248H18.7083C19.0877 14.937 19.7935 16.2534 20.8074 17.5047V17.5047Z" fill="url(#paint2_linear_18_550)"/>
<path d="M29.6488 22.2666V10.0572C29.6488 8.55097 28.4213 7.32349 26.9151 7.32349H14.7057C13.1995 7.32349 11.972 8.55097 11.972 10.0572V14.4926C11.972 17.8726 10.5725 21.158 8.13536 23.4999L7.63726 23.9802C7.46527 24.1462 7.40596 24.4011 7.50076 24.6264C7.58961 24.8518 7.809 24.9999 8.04626 24.9999H26.9154C28.4216 25.0002 29.6491 23.7727 29.6491 22.2665L29.6488 22.2666ZM25.486 20.6834C25.8062 20.7547 26.008 21.0689 25.9367 21.389C25.8774 21.6677 25.6342 21.8576 25.3615 21.8576C25.32 21.8576 25.2783 21.8516 25.2309 21.8397C23.446 21.4543 21.9813 20.4521 20.8073 19.2899C19.6391 20.4521 18.1684 21.4542 16.3837 21.8397C16.3423 21.8516 16.3006 21.8576 16.2592 21.8576C15.9864 21.8576 15.7372 21.6677 15.6779 21.389C15.6067 21.0688 15.8085 20.7544 16.1286 20.6834C17.6703 20.3454 18.9572 19.456 20.0007 18.4064C18.5833 16.7162 17.7356 14.9078 17.4035 14.125H15.0138C14.6817 14.125 14.4209 13.8641 14.4209 13.5321C14.4209 13.206 14.6817 12.9392 15.0138 12.9392H20.2142V11.0594C20.2142 10.7333 20.481 10.4665 20.8071 10.4665C21.1332 10.4665 21.4 10.7333 21.4 11.0594V12.9392H26.6063C26.9324 12.9392 27.1992 13.206 27.1992 13.5321C27.1992 13.8641 26.9324 14.125 26.6063 14.125H24.2166C23.8845 14.9077 23.0306 16.7162 21.6194 18.4064C22.6575 19.456 23.9444 20.3454 25.486 20.6834H25.486Z" fill="url(#paint3_linear_18_550)"/>
<defs>
<linearGradient id="paint0_linear_18_550" x1="6.49003" y1="5.31311" x2="6.49003" y2="8.28411" gradientUnits="userSpaceOnUse">
<stop stop-color="#82CCFF"/>
<stop offset="1" stop-color="#0088FF"/>
</linearGradient>
<linearGradient id="paint1_linear_18_550" x1="11.0934" y1="0" x2="11.0934" y2="17.6769" gradientUnits="userSpaceOnUse">
<stop stop-color="#82CCFF"/>
<stop offset="1" stop-color="#0088FF"/>
</linearGradient>
<linearGradient id="paint2_linear_18_550" x1="20.8104" y1="14.1248" x2="20.8104" y2="17.5047" gradientUnits="userSpaceOnUse">
<stop stop-color="#82CCFF"/>
<stop offset="1" stop-color="#0088FF"/>
</linearGradient>
<linearGradient id="paint3_linear_18_550" x1="18.5524" y1="7.32349" x2="18.5524" y2="24.9999" gradientUnits="userSpaceOnUse">
<stop stop-color="#82CCFF"/>
<stop offset="1" stop-color="#0088FF"/>
</linearGradient>
</defs>
</svg>

<svg width="30" height="25" fill="none" xmlns="http://www.w3.org/2000/svg"><path d="M6.493 5.313 5.248 8.284h2.484l-1.239-2.97Z" fill="url(#a)"/><path d="M2.733 17.677h7.585c.308-1.026.468-2.1.468-3.184v-4.436a3.928 3.928 0 0 1 3.92-3.92h3.765c.06-.177.13-.355.208-.527.16-.374.338-.742.533-1.103a.665.665 0 0 1 .072-.125c.077-.148.16-.296.255-.439.106-.178.219-.356.343-.527a7.45 7.45 0 0 1 .368-.51c.125-.167.255-.333.397-.487.267-.32.558-.628.866-.925l.492-.474A.593.593 0 0 0 21.596 0H2.733A2.734 2.734 0 0 0 0 2.734v12.21a2.734 2.734 0 0 0 2.733 2.733Zm.137-6.778.942-2.253 2.13-5.1a.597.597 0 0 1 1.096 0l3.078 7.353a.596.596 0 0 1-.551.824.588.588 0 0 1-.546-.367L8.23 9.47H4.75l-.79 1.886a.595.595 0 0 1-.776.32.588.588 0 0 1-.314-.777Z" fill="url(#b)"/><path d="M20.807 17.505c1.02-1.251 1.72-2.568 2.106-3.38h-4.205c.38.812 1.086 2.128 2.1 3.38Z" fill="url(#c)"/><path d="M29.649 22.267v-12.21a2.738 2.738 0 0 0-2.734-2.734h-12.21a2.738 2.738 0 0 0-2.733 2.734v4.436c0 3.38-1.4 6.665-3.837 9.007l-.498.48a.583.583 0 0 0-.136.646.59.59 0 0 0 .545.374h18.87a2.738 2.738 0 0 0 2.733-2.733Zm-4.163-1.584a.59.59 0 0 1 .45.706.589.589 0 0 1-.575.469.528.528 0 0 1-.13-.018c-1.785-.386-3.25-1.388-4.424-2.55-1.168 1.162-2.639 2.164-4.423 2.55a.45.45 0 0 1-.125.018.595.595 0 0 1-.13-1.175c1.541-.338 2.828-1.227 3.872-2.277-1.418-1.69-2.265-3.498-2.598-4.281h-2.39a.587.587 0 0 1-.592-.593.59.59 0 0 1 .593-.593h5.2v-1.88c0-.326.267-.592.593-.592.326 0 .593.266.593.592v1.88h5.206c.326 0 .593.267.593.593a.59.59 0 0 1-.593.593h-2.39c-.332.783-1.185 2.591-2.597 4.281 1.038 1.05 2.325 1.94 3.867 2.277Z" fill="url(#d)"/><defs><linearGradient id="a" x1="6.49" y1="5.313" x2="6.49" y2="8.284" gradientUnits="userSpaceOnUse"><stop stop-color="#82CCFF"/><stop offset="1" stop-color="#08F"/></linearGradient><linearGradient id="b" x1="11.093" y1="0" x2="11.093" y2="17.677" gradientUnits="userSpaceOnUse"><stop stop-color="#82CCFF"/><stop offset="1" stop-color="#08F"/></linearGradient><linearGradient id="c" x1="20.81" y1="14.125" x2="20.81" y2="17.505" gradientUnits="userSpaceOnUse"><stop stop-color="#82CCFF"/><stop offset="1" stop-color="#08F"/></linearGradient><linearGradient id="d" x1="18.552" y1="7.323" x2="18.552" y2="25" gradientUnits="userSpaceOnUse"><stop stop-color="#82CCFF"/><stop offset="1" stop-color="#08F"/></linearGradient></defs></svg>
